X:1
T:Title
%%score [ 1 2 3 4 ]
L:1/8
Q:1/4=160
M:3/2
K:F
V:1 treble-8 nm="Midi_1"
V:2 treble-8 nm="Midi_1"
V:3 bass nm="Midi_1"
V:4 bass nm="Midi_1"
V:1
"^Ich weiß nicht, was ich suchen könnte""^Choralmäßig." A4 B4 c4 | d8 c4 | (B4 A4) G4 | %3
w: 1.~Ich weiß nicht,|was ich|su * chen|
w: 2.~Hat er sich|euch nicht|kund * ge-|
w: 3.~Nimm du mich|hin, du|Held * der|
!>(! B4 A4!>)! z4 | %4
w: könn- te,|
w: ge- ben?|
w: Lie- be|
!<(! c4"^Wilhelm Greef, 1844 (1809 -1875)" c4"^Novalis, Geistliche Lieder, 1802 (1772 -1801)" c4!<)! | %5
w: wär je- nes|
w: Ver- gaßt ihr,|
w: du bist mein|
!>(! f8 d4 | c8!>)! =B4 | c8 z4 | c4 B4 A4 | d8 c4 | (B4 A4) G4 | B4 A4 z4 |!<(! A4 c4 c4!<)! | %13
w: lie- be|We- sen|mein,|wenn er mich|sei- ne|Freu * de|nenn- te,|und bei mir|
w: wer für|euch er-|blich?|Wer uns zu|Lieb' aus|die * sem|Le- ben|in bit- trer|
w: Le- ben,|mei- ne|Welt,|wenn nichts vom|Ir- di-|schen * mir|blie- be,|so weiß ich,|
 (f4 e4) d4 |!>(! e8 d4!>)! | c8 z4 ||!<(! c4 d4 e4!<)! | f8 e4 | (d4 c4) B4 | (d6 c2) c4 | %20
w: wär', * als|wär' ich|sein.|So Vie- le|gehn um-|her * und|su * chen|
w: Qual * ver-|ach tet|wich?|Habt ihr von|ihm denn|nichts * ge-|le * sen,|
w: wer * mich|schad- los|hält.|Du giebst mir|mei- ne|Lie * ben|wie * der,|
 c4"^Ich weiß nicht, was ich suchen könnte - Seite 2" d4 A4 | B8 d4 | (f4 e4) d4 | ^c8 z4 | %24
w: mit wild ver-|zerr- tem|An * ge-|sicht,|
w: kein ar- mes|Wort von|ihm * ge-|hört?|
w: du bleibst in|E- wig-|keit * mir|treu,|
 A4 c4 c4 | G8 A4 | (B4 d4) (c2 B2) | (B6 A2) A4 |"^cresc." A4 B4 c4 | d8 d4 | (c4 f4) e4 | %31
w: sie hei- ßen|im- mer|sich * die *|Klu * gen,|und ken- nen|die- sen|Schatz * doch|
w: Wie himm- lisch|gut er|uns * ge *|we * sen,|und wel- ches|Gut er|uns * be-|
w: an- be- tend|sinkt der|Him * mel *|nie- der, *|und den- noch|woh- nest|du * mir|
 f8 z4 |] %32
w: nicht.|
w: schert?|
w: bei.|
V:2
 F4 G4 A4 | B8 A4 | (G4 F4) E4 |!>(! G4 F4!>)! z4 |!<(! A4 c4 c4!<)! |!>(! A8 A4 | G8!>)! G4 | %7
 G8 z4 | A4 G4 F4 | B8 A4 | (G4 F4) E4 | (F2 G2) F4 z4 |!<(! A4 G4 A4!<)! | (A4 c4) c4 | %14
!>(! c8 =B4!>)! | c8 z4 ||!<(! c4 =B4 _B4!<)! | (A4 d4) c4 | (B4 A4) B4 | B8 A4 | A4 A4 ^F4 | %21
 G8 B4 | =B8 B4 | A8 z4 | A4 G4 G4 | G8 ^F4 | (G4 B4) (A2 G2) | G8 F4 | F4 B4 A4 | ^G8 G4 | %30
 (A4 c4) B4 | A8 z4 |] %32
V:3
 F,4 F,4 F,4 | F,8 F,4 | (D,4 C,4) C,4 | E,4 C,4 z4 | F,4 A,4 G,4 | F,8 F,4 | (E,4 D,4) D,4 | %7
w: 1.~Ich weiß nicht,|was ich|su * chen|könn- te,|wär je- nes|lie- be|We * sen|
w: 2.~Hat er sich|euch nicht|kund * ge-|ge- ben?|Ver- gaßt ihr,|wer für|euch * er-|
w: 3.~Nimm du mich|hin, du|Held * der|Lie- be|du bist mein|Le- ben,|mei * ne|
 E,8 z4 | F,4 E,4 F,4 | F,8 F,4 | (D,4 C,4) C,4 | (D,2 E,2) F,4 z4 | F,4 G,4 F,4 | (F,4 G,4) A,4 | %14
w: mein,|wenn er mich|sei- ne|Freu * de|nenn * te,|und bei mir|wär', * als|
w: blich?|Wer uns zu|Lieb' aus|die * sem|Le * ben|in bit- trer|Qual * ver-|
w: Welt,|wenn nichts vom|Ir- di-|schen * mir|blie * be,|so weiß ich,|wer * mich|
 G,8 F,4 | E,8 z4 || E,4 F,4 G,4 | (F,6 G,2) A,4 | F,8 F,4 | G,8 A,4 | F,4 ^F,4 D,4 | D,8 D,4 | %22
w: wär' ich|sein.|So Vie- le|gehn * um-|her und|su- chen|mit wild ver-|zerr- tem|
w: ach tet|wich?|Habt ihr von|ihm * denn|nichts ge-|le- sen,|kein ar- mes|Wort von|
w: schad- los|hält.|Du giebst mir|mei * ne|Lie- ben|wie- der,|du bleibst in|E- wig-|
 (D,4 E,4) F,4 | E,8 z4 | F,4 G,4 E,4 | D,8 C,4 | D,8 E,4 | (F,4 E,4) F,4 |"^cresc." F,4 F,4 F,4 | %29
w: An * ge-|sicht,|sie hei- ßen|im- mer|sich die|Klu * gen,|und ken- nen|
w: ihm * ge-|hört?|Wie himm- lisch|gut er|uns ge-|we * sen,|und wel- ches|
w: keit * mir|treu,|an- be- tend|sinkt der|Him- mel|nie * der,|und den- noch|
 F,8 F,4 | (F,4 A,4) G,4 | F,8 z4 |] %32
w: die- sen|Schatz * doch|nicht.|
w: Gut er|uns * be-|schert?|
w: woh- nest|du * mir|bei.|
V:4
 F,4 F,4 F,4 | B,,8 F,,4 | (B,,4 C,4) C,4 |!>(! C,4 F,,4!>)! z4 |!<(! F,4 F,4 E,4!<)! | %5
!>(! D,8 F,,4 | G,,8!>)! G,,4 | C,8 z4 | F,4 C,4 D,4 | B,,8 F,,4 | (G,,4 A,,2 B,,2) C,4 | %11
 (D,2 C,2) F,,4 z4 |!<(! F,4 E,4 F,4!<)! | (D,4 E,4) F,4 |!>(! G,8 G,,4!>)! | C,8 z4 || %16
!<(! C,4 C,4 C,4!<)! | D,8 A,,4 | (B,,4 C,4) D,4 | E,8 F,4 | F,4 D,4 D,4 | G,,8 G,,4 | ^G,,8 G,,4 | %23
 A,,8 z4 | %24
"^© 2010 by CPDL. This edition can be fully distributed, duplicated, performed, and recorded. Edited by Juliane Claudi" D,4 E,4 C,4 | %25
 B,,8 A,,4 | G,,8 C,4 | (D,4 ^C,4) D,4 |"^cresc." _E,4 D,4 C,4 | =B,,8 B,,4 | C,8 C,4 | F,,8 z4 |] %32

